public/images/search-icon.svg

<svg width="20" height="21" viewBox="0 0 20 21" fill="none" xmlns="http://www.w3.org/2000/svg">
<path d="M2.3569 13.8574C3.74164 15.2562 5.58567 16.096 7.54161 16.2184C9.49755 16.3409 11.4304 15.7376 12.9759 14.5221L18.2939 19.8868C18.4825 20.0706 18.7351 20.1723 18.9973 20.17C19.2595 20.1677 19.5103 20.0616 19.6958 19.8745C19.8812 19.6875 19.9863 19.4345 19.9886 19.17C19.9909 18.9055 19.8901 18.6507 19.7079 18.4604L14.3899 13.0957C15.6482 11.4667 16.2431 9.41483 16.0533 7.35856C15.8635 5.30229 14.9032 3.3965 13.3684 2.02988C11.8336 0.663255 9.83975 -0.0612706 7.79357 0.00406367C5.7474 0.0693979 3.80299 0.919671 2.3569 2.38148C1.6097 3.13486 1.01696 4.02937 0.612554 5.0139C0.208149 5.99844 0 7.0537 0 8.11941C0 9.18512 0.208149 10.2404 0.612554 11.2249C1.01696 12.2095 1.6097 13.104 2.3569 13.8574ZM3.7709 3.80991C4.75948 2.81268 6.06023 2.19207 7.45154 2.05382C8.84284 1.91557 10.2386 2.26824 11.4011 3.05173C12.5635 3.83523 13.4207 5.00107 13.8266 6.35064C14.2325 7.7002 14.162 9.14999 13.6271 10.453C13.0922 11.756 12.1259 12.8316 10.893 13.4965C9.66014 14.1614 8.23684 14.3746 6.86563 14.0996C5.49442 13.8246 4.26015 13.0785 3.3731 11.9884C2.48605 10.8984 2.00111 9.53174 2.0009 8.12143C1.99816 7.32003 2.1532 6.52606 2.45705 5.78558C2.76089 5.04511 3.20748 4.37288 3.7709 3.80789V3.80991Z" fill="black"/>
</svg>

<svg width="20" height="21" fill="none" xmlns="http://www.w3.org/2000/svg"><path d="M2.357 13.857a7.999 7.999 0 005.185 2.361 7.981 7.981 0 005.434-1.696l5.318 5.365a.995.995 0 001.402-.012 1.013 1.013 0 00.012-1.415l-5.318-5.364A8.16 8.16 0 0013.368 2.03 7.998 7.998 0 007.794.004a8.007 8.007 0 00-5.437 2.377A8.118 8.118 0 00.613 5.014a8.174 8.174 0 000 6.21c.404.986.997 1.88 1.744 2.633zM3.77 3.81a6.003 6.003 0 017.63-.758 6.092 6.092 0 012.426 3.299 6.15 6.15 0 01-.2 4.102 6.077 6.077 0 01-2.734 3.043 5.997 5.997 0 01-4.027.604 6.034 6.034 0 01-3.493-2.112A6.129 6.129 0 012 8.121a6.099 6.099 0 01.456-2.335c.304-.74.75-1.413 1.314-1.978v.002z" fill="#000"/></svg>
